X:1
T:Out on the Ocean
L:1/8
M:6/8
Z:robin.beech@mcgill.ca
R:jig
K:G
D2B BAG | BdB ABA | GED G2A | B2B AGE |
D2B BAG | BdB ABA | GED G2A |1 BGG GFE :|2 BGG GBd ||
e3 edB | e3 edB | d3 dBA | d3 dBA | G2A B2d |
e2e dBA | GED G2A | BGG GBd |
e3 edB | e3 edB | d3 def | gfe dBA |
G2A B2d | e2e dBA | GED G2A | BGG G3 |]
